X: 7944
T: Condon's Frolics
R: jig
M: 6/8
K: Adorian
|eAB c2d|edc BAG|eAB c2d|e2d eag|
eAB c2d|edc B3|GB/c/d gdB|A3 ABd|
eAB c2d|edc Bcd|eAB c2d|e2d eag|
eAB c2d|edc B3|GB/c/d gdB|A3 A2d||
|:eaa efg|dec BAG|cBc dB/c/d|e2d efg|
eaa efg|dec B3|GB/c/d gdB|1 A3 A2d:|2 A3 ABd||

